svg/robot_happy_outline.svg

<svg xmlns="http://www.w3.org/2000/svg" viewBox="0 0 24 24"><path d="M10.5 15.5c0 .37-.1.7-.28 1-.34-.59-.98-1-1.72-1s-1.38.41-1.72 1c-.17-.3-.28-.63-.28-1 0-1.1.9-2 2-2s2 .9 2 2M23 15v3c0 .55-.45 1-1 1h-1v1c0 1.11-.89 2-2 2H5a2 2 0 0 1-2-2v-1H2c-.55 0-1-.45-1-1v-3c0-.55.45-1 1-1h1c0-3.87 3.13-7 7-7h1V5.73c-.6-.34-1-.99-1-1.73 0-1.1.9-2 2-2s2 .9 2 2c0 .74-.4 1.39-1 1.73V7h1c3.87 0 7 3.13 7 7h1c.55 0 1 .45 1 1m-2 1h-2v-2c0-2.76-2.24-5-5-5h-4c-2.76 0-5 2.24-5 5v2H3v1h2v3h14v-3h2zm-5.5-2.5c-1.1 0-2 .9-2 2 0 .37.11.7.28 1 .34-.59.98-1 1.72-1s1.38.41 1.72 1c.18-.3.28-.63.28-1a2 2 0 0 0-2-2"/></svg>

<?xml version="1.0" encoding="UTF-8"?><!DOCTYPE svg PUBLIC "-//W3C//DTD SVG 1.1//EN" "http://www.w3.org/Graphics/SVG/1.1/DTD/svg11.dtd"><svg xmlns="http://www.w3.org/2000/svg" xmlns:xlink="http://www.w3.org/1999/xlink" version="1.1" id="mdi-robot-happy-outline" width="24" height="24" viewBox="0 0 24 24"><path d="M10.5 15.5C10.5 15.87 10.4 16.2 10.22 16.5C9.88 15.91 9.24 15.5 8.5 15.5S7.12 15.91 6.78 16.5C6.61 16.2 6.5 15.87 6.5 15.5C6.5 14.4 7.4 13.5 8.5 13.5S10.5 14.4 10.5 15.5M23 15V18C23 18.55 22.55 19 22 19H21V20C21 21.11 20.11 22 19 22H5C3.9 22 3 21.11 3 20V19H2C1.45 19 1 18.55 1 18V15C1 14.45 1.45 14 2 14H3C3 10.13 6.13 7 10 7H11V5.73C10.4 5.39 10 4.74 10 4C10 2.9 10.9 2 12 2S14 2.9 14 4C14 4.74 13.6 5.39 13 5.73V7H14C17.87 7 21 10.13 21 14H22C22.55 14 23 14.45 23 15M21 16H19V14C19 11.24 16.76 9 14 9H10C7.24 9 5 11.24 5 14V16H3V17H5V20H19V17H21V16M15.5 13.5C14.4 13.5 13.5 14.4 13.5 15.5C13.5 15.87 13.61 16.2 13.78 16.5C14.12 15.91 14.76 15.5 15.5 15.5S16.88 15.91 17.22 16.5C17.4 16.2 17.5 15.87 17.5 15.5C17.5 14.4 16.61 13.5 15.5 13.5Z" /></svg>
